Yaru++/apps/scalable/xnoise.svg

<svg height="256" width="256" xmlns="http://www.w3.org/2000/svg" xmlns:xlink="http://www.w3.org/1999/xlink">
  <linearGradient id="linearGradient4358" gradientUnits="userSpaceOnUse" x1="88" x2="488" y1="88" y2="488">
    <stop offset="0" stop-opacity=".588235"/>
    <stop offset="1" stop-opacity=".205556"/>
  </linearGradient>
  <filter id="filter4380" color-interpolation-filters="sRGB" height="1.088" width="1.106" x="-.05" y="-.04">
    <feGaussianBlur stdDeviation="8.48"/>
  </filter>
  <filter id="filter4346" color-interpolation-filters="sRGB" height="1.022" width="1.026" x="-.01" y="-.01">
    <feGaussianBlur stdDeviation="2.12"/>
  </filter>
  <linearGradient id="linearGradient1690" gradientUnits="userSpaceOnUse" x1="133.816" x2="129.989" y1="234.389" y2="19.576">
    <stop offset="0" stop-color="#da1636"/>
    <stop offset="1" stop-color="#9b33ae"/>
  </linearGradient>
  <path d="m141.84323 74c-70.59344 0-78.18921 7.250835-77.84323 77.98706v146.01294 146.01294c-.34598 70.73623 7.24979 77.98706 77.84323 77.98706h292.31354c70.59344 0 79.78033-7.27652 77.84323-77.98706v-146.01294-146.01294c0-70.737067-7.24979-77.98706-77.84323-77.98706z" filter="url(#filter4346)" opacity=".1" transform="matrix(.5 0 0 .5 -16.116488 -20.825537)"/>
  <path d="m141.84323 74c-70.59344 0-78.18921 7.250835-77.84323 77.98706v146.01294 146.01294c-.34598 70.73623 7.24979 77.98706 77.84323 77.98706h292.31354c70.59344 0 79.78033-7.27652 77.84323-77.98706v-146.01294-146.01294c0-70.737067-7.24979-77.98706-77.84323-77.98706z" fill="url(#linearGradient4358)" filter="url(#filter4380)" opacity=".3" transform="matrix(.5 0 0 .5 -16.116488 -20.825235)"/>
  <path d="m53.695112 13.174464c-36.098811 0-39.983002 3.690159-39.80608 39.689839v74.310167 74.31016c-.176922 35.99969 3.707269 39.68984 39.80608 39.68984h148.387318c36.09881 0 40.77464-3.70276 39.80608-39.68984v-74.31016-74.310167c0-36.00011-3.70727-39.689839-39.80608-39.689839z" opacity=".2"/>
  <path d="m54.798828 15.173828c-4.412089 0-8.327563.056409-11.804687.22461-3.477125.1682-6.514298.448292-9.166016.894531-2.651718.446238-4.9196 1.060416-6.855469 1.894531-.967934.417057-1.852595.889207-2.662109 1.423828-.809515.534621-1.542242 1.130961-2.207031 1.796875-.66479.665915-1.261163 1.4-1.794922 2.210938-.533759.810937-1.005452 1.698278-1.421875 2.667968-.832847 1.939382-1.444952 4.210416-1.890625 6.867188-.445673 2.656771-.724521 5.699594-.892578 9.183594-.168058 3.484-.22461 7.409011-.22461 11.830078v73.005861 73.00781c0 4.42107.056552 8.34608.22461 11.83008.168057 3.484.446905 6.52682.892578 9.18359s1.057778 4.92781 1.890625 6.86719c.416423.96969.888116 1.85508 1.421875 2.66602.533759.81093 1.130132 1.54697 1.794922 2.21289.664789.66591 1.397516 1.26225 2.207031 1.79687.809514.53462 1.694175 1.00677 2.662109 1.42383 1.935869.83411 4.203751 1.44634 6.855469 1.89258s5.688891.72633 9.166016.89453c3.477124.1682 7.392598.22461 11.804687.22461h146.158202c4.41209 0 8.33098-.0564 11.8125-.22461s6.52512-.44828 9.18359-.89453c2.65848-.44626 4.93204-1.05845 6.875-1.89258.97149-.41707 1.86107-.8892 2.67383-1.42383.81277-.53463 1.54931-1.13095 2.2168-1.79687s1.26512-1.40195 1.80078-2.21289c.53566-.81095 1.00851-1.69828 1.42578-2.66797.83454-1.93939 1.44706-4.20848 1.88867-6.86524.44162-2.65676.71291-5.69962.86914-9.18359.15624-3.48397.19741-7.40906.17579-11.83008v-73.00781-73.005861c.02162-4.421014-.01955-8.346107-.17579-11.830078-.15623-3.483972-.42752-6.526832-.86914-9.183594-.44161-2.656762-1.05413-4.927802-1.88867-6.867188-.41727-.969692-.89012-1.857026-1.42578-2.667968-.53566-.810943-1.13329-1.545017-1.80078-2.210938s-1.40403-1.262246-2.2168-1.796875c-.81276-.534629-1.70234-1.006762-2.67383-1.423828-1.94296-.834132-4.21652-1.448276-6.875-1.894531-2.65847-.446255-5.70207-.726321-9.18359-.894531-3.48152-.168211-7.40041-.22461-11.8125-.22461z" fill="url(#linearGradient1690)" fill-rule="evenodd"/>
  <path d="m54.798828 15.173828c-35.296727 0-39.094869 3.626029-38.921879 38.994139v2c-.17299-35.36811 3.625152-38.99414 38.921879-38.99414h146.156232c35.29673 0 38.92188 3.62561 38.92188 38.99414v-2c0-35.36853-3.62515-38.994139-38.92188-38.994139z" fill="#fff" opacity=".3"/>
  <path d="m54.810792 239.17447c-35.296731 0-39.094875-3.62603-38.921885-38.99414v-2c-.17299 35.36811 3.625154 38.99414 38.921885 38.99414h146.156238c35.29673 0 38.92188-3.62561 38.92188-38.99414v2c0 35.36853-3.62515 38.99414-38.92188 38.99414z" opacity=".2"/>
  <path d="m66.420926 73.729383a13.362417 13.362417 0 1 0 0 26.722487h8.016648c3.340272 0 4.507932.65545 6.927477 2.83304 2.41954 2.17759 5.336929 6.24832 8.677201 11.25873 2.590829 3.88624 5.441319 8.33695 9.355369 12.62975-3.91405 4.29278-6.76454 8.74448-9.355369 12.63072-3.340272 5.0104-6.257646 9.08113-8.677201 11.25873s-3.58718 2.83303-6.927477 2.83303h-8.016648a13.362334 13.362334 0 1 0 0 26.72249h8.016648c10.020791 0 18.873317-4.35497 24.804447-9.69298 5.931119-5.338 9.694609-11.28809 13.034879-16.29849 3.34027-5.01041 6.25667-9.08113 8.67623-11.25874 2.41954-2.17759 3.58815-2.83303 6.92845-2.83303 3.34029 0 4.5089.65544 6.92844 2.83303 2.41956 2.17761 5.33596 6.24833 8.67623 11.25874 3.34027 5.0104 7.10376 10.96049 13.03488 16.29849 5.93113 5.33801 14.78366 9.69298 24.80445 9.69298h8.01665a13.362334 13.362334 0 1 0 0-26.72249h-8.01665c-3.3403 0-4.50792-.65543-6.92748-2.83303-2.41955-2.1776-5.33693-6.24833-8.6772-11.25873-2.6049-3.90736-5.47294-8.38585-9.41995-12.7002 1.4349-1.52614 2.72676-3.07283 3.86251-4.57689 6.29647-8.33834 10.6233-15.99956 14.25128-19.25679 2.41088-2.16444 3.57849-2.81836 6.91084-2.81836h8.01665a13.362417 13.362417 0 1 0 0-26.722487h-8.01665c-9.99797 0-18.83543 4.33466-24.76335 9.65678-8.91901 8.00757-13.36744 17.268657-17.72333 23.037097-4.35588 5.76844-5.94311 7.38937-10.95732 7.38937-3.34028 0-4.50891-.65545-6.92845-2.83303-2.41955-2.1776-5.33596-6.24833-8.67623-11.258737-3.34027-5.01041-7.10375-10.96048-13.034879-16.29849-5.93114-5.33802-14.783631-9.69299-24.804447-9.69299z" fill="#f1f1f1"/>
  <path d="m66.421875 73.728516a13.362417 13.362417 0 0 0 -13.494141 14.251953 13.362417 13.362417 0 0 1 13.494141-12.251953h8.015625c10.020816 0 18.873548 4.355339 24.804688 9.693359 5.931132 5.33801 9.694882 11.288421 13.035152 16.298825 3.34027 5.01041 6.25623 9.08217 8.67578 11.25977 2.41954 2.17758 3.58746 2.83203 6.92774 2.83203 5.01421 0 6.6031-1.62023 10.95898-7.38867 4.35589-5.76844 8.80365-15.029541 17.72266-23.037111 5.92792-5.32212 14.7657-9.658203 24.76367-9.658203h8.01563a13.362417 13.362417 0 0 1 13.49414 12.455078 13.362417 13.362417 0 0 0 -13.49414-14.455078h-8.01563c-9.99797 0-18.83575 4.336083-24.76367 9.658203-8.91901 8.00757-13.36677 17.268671-17.72266 23.037111-4.35588 5.76844-5.94477 7.38867-10.95898 7.38867-3.34028 0-4.5082-.65445-6.92774-2.83203-2.41955-2.1776-5.33551-6.24936-8.67578-11.259767-3.34027-5.01041-7.10402-10.960818-13.035152-16.298828-5.93114-5.33802-14.783872-9.693359-24.804688-9.693359zm90.763675 54.378904c-.29739.33201-.57382.66537-.88477.9961 3.94701 4.31435 6.81502 8.79381 9.41992 12.70117 3.34027 5.0104 6.25819 9.08021 8.67774 11.25781 2.41956 2.1776 3.58743 2.83398 6.92773 2.83398h8.01563a13.362334 13.362334 0 0 1 13.48632 12.46485 13.362334 13.362334 0 0 0 -13.48632-14.46485h-8.01563c-3.3403 0-4.50817-.65638-6.92773-2.83398-2.41955-2.1776-5.33747-6.24741-8.67774-11.25781-2.40371-3.60558-5.0423-7.69679-8.53515-11.69727zm-58.666019.06641c-3.463753 3.97929-6.086215 8.04534-8.476562 11.63086-3.340272 5.0104-6.25818 9.08021-8.677735 11.25781s-3.587437 2.83398-6.927734 2.83398h-8.015625a13.362334 13.362334 0 0 0 -13.486328 14.2461 13.362334 13.362334 0 0 1 13.486328-12.2461h8.015625c3.340297 0 4.508179-.65638 6.927734-2.83398s5.337463-6.24741 8.677735-11.25781c2.590829-3.88624 5.441418-8.33808 9.355469-12.63086-.302669-.33196-.588586-.66649-.878907-1z" fill="#fff" opacity=".3"/>
  <path d="m52.927734 85.980469a13.362417 13.362417 0 0 0 13.494141 14.470701h8.015625c3.340272 0 4.508189.6564 6.927734 2.83399 2.41954 2.17759 5.337463 6.2474 8.677735 11.25781 2.390483 3.58572 5.012513 7.65147 8.476562 11.63086.290511-.33375.576032-.66782.878907-1-3.91405-4.2928-6.76464-8.74462-9.355469-12.63086-3.340272-5.01041-6.258195-9.08022-8.677735-11.25781-2.419545-2.177594-3.587462-2.833988-6.927734-2.833988h-8.015625a13.362417 13.362417 0 0 1 -13.494141-12.470703zm149.908206.203125a13.362417 13.362417 0 0 1 -13.49414 12.267578h-8.01563c-3.33235 0-4.50123.653919-6.91211 2.818358-3.62798 3.25723-7.95353 10.91947-14.25 19.25781-1.13575 1.50406-2.42838 3.05004-3.86328 4.57618.30485.33322.59241.66906.88477 1.0039 1.07491-1.20007 2.08889-2.40195 2.97851-3.58008 6.29647-8.33834 10.62202-16.00058 14.25-19.25781 2.41088-2.16444 3.57976-2.81836 6.91211-2.81836h8.01563a13.362417 13.362417 0 0 0 13.49414-14.267576zm-74.95508 52.351566c-3.3403 0-4.5082.65444-6.92774 2.83203-2.41956 2.17761-5.33551 6.24935-8.67578 11.25976-3.34027 5.0104-7.10403 10.96083-13.035152 16.29883-5.93113 5.33801-14.783897 9.69336-24.804688 9.69336h-8.015625a13.362334 13.362334 0 0 1 -13.486328-12.4668 13.362334 13.362334 0 0 0 13.486328 14.4668h8.015625c10.020791 0 18.873558-4.35535 24.804688-9.69336 5.931122-5.338 9.694882-11.28843 13.035152-16.29883 3.34027-5.01041 6.25622-9.08215 8.67578-11.25976 2.41954-2.17759 3.58744-2.83203 6.92774-2.83203 3.34029 0 4.51015.65444 6.92969 2.83203 2.41956 2.17761 5.33551 6.24935 8.67578 11.25976 3.34027 5.0104 7.10403 10.96083 13.03515 16.29883 5.93113 5.33801 14.7839 9.69336 24.80469 9.69336h8.01563a13.362334 13.362334 0 0 0 13.48632-14.25781 13.362334 13.362334 0 0 1 -13.48632 12.25781h-8.01563c-10.02079 0-18.87356-4.35535-24.80469-9.69336-5.93112-5.338-9.69488-11.28843-13.03515-16.29883-3.34027-5.01041-6.25622-9.08215-8.67578-11.25976-2.41954-2.17759-3.5894-2.83203-6.92969-2.83203z" opacity=".2"/>
</svg>

<svg xmlns="http://www.w3.org/2000/svg" xmlns:xlink="http://www.w3.org/1999/xlink" width="256" height="256" version="1.0">
 <defs>
  <linearGradient id="linearGradient1688">
   <stop style="stop-color:#da1636" id="stop1684" offset="0"/>
   <stop style="stop-color:#9b33ae" id="stop1686" offset="1"/>
  </linearGradient>
  <linearGradient id="a">
   <stop id="stop2" offset="0" stop-color="#68676b"/>
   <stop id="stop4" offset=".8" stop-color="#424048"/>
   <stop id="stop6" offset="1" stop-color="#241f31"/>
  </linearGradient>
  <radialGradient id="d" cx="279.422" cy="446.483" r="224" fx="279.422" fy="446.483" gradientTransform="matrix(1.34416,6e-4,-6.2e-4,1.38763,-121.22,-718.103)" gradientUnits="userSpaceOnUse" xlink:href="#a"/>
  <linearGradient id="e" x1="43.844" x2="-60" y1="234" y2="234" gradientTransform="matrix(1.0015,0,0,0.99993,72.09,56.015)" gradientUnits="userSpaceOnUse" xlink:href="#b"/>
  <linearGradient id="b">
   <stop id="stop11" offset="0" stop-color="#d5d3cf"/>
   <stop id="stop13" offset=".038" stop-color="#e3e2df"/>
   <stop id="stop15" offset=".077" stop-color="#c0bfbc"/>
   <stop id="stop17" offset=".923" stop-color="#c0bfbc"/>
   <stop id="stop19" offset=".962" stop-color="#e3e2df"/>
   <stop id="stop21" offset="1" stop-color="#d5d3cf"/>
  </linearGradient>
  <linearGradient id="linearGradient1007" x1="160.305" x2="161.33" y1="240.139" y2="135.579" gradientTransform="matrix(0.54625232,0,0,0.54625232,-6.0941965,-68.413544)" gradientUnits="userSpaceOnUse" xlink:href="#linearGradient1018"/>
  <linearGradient id="linearGradient1018">
   <stop id="stop2-3" offset="0" style="stop-color:#37a6e6"/>
   <stop id="stop4-6" offset="1" style="stop-color:#1a7fd4"/>
  </linearGradient>
  <clipPath id="clipPath1082-3" clipPathUnits="userSpaceOnUse">
   <path d="M 361.9375,-212 C 507.2348,-212 528,-191.28677 528,-46.125 V 70.125 C 528,215.28618 507.2348,236 361.9375,236 H 214.0625 C 68.7652,236 48,215.28618 48,70.125 V -46.125 C 48,-191.28677 68.7652,-212 214.0625,-212 Z" style="fill:#8c59d9"/>
  </clipPath>
  <linearGradient id="linearGradient4358" x1="88" x2="488" y1="88" y2="488" gradientUnits="userSpaceOnUse" xlink:href="#linearGradient4360"/>
  <linearGradient id="linearGradient4360">
   <stop id="stop4362" offset="0" style="stop-color:#000000;stop-opacity:0.58823532"/>
   <stop id="stop4366" offset="1" style="stop-color:#000000;stop-opacity:0.20555556"/>
  </linearGradient>
  <filter style="color-interpolation-filters:sRGB" id="filter4380" width="1.106" height="1.088" x="-.05" y="-.04">
   <feGaussianBlur id="feGaussianBlur4382" stdDeviation="8.48"/>
  </filter>
  <filter style="color-interpolation-filters:sRGB" id="filter4346" width="1.026" height="1.022" x="-.01" y="-.01">
   <feGaussianBlur id="feGaussianBlur4348" stdDeviation="2.12"/>
  </filter>
  <radialGradient id="radialGradient1030" cx="64" cy="194.19" r="44" gradientTransform="matrix(-4.7273,7.9359e-7,-3.0301e-7,-1.6364,406.68559,219.93549)" gradientUnits="userSpaceOnUse">
   <stop id="stop1016" offset="0" style="stop-color:#fff"/>
   <stop id="stop1018" offset="1" style="stop-color:#fff;stop-opacity:.094118"/>
  </radialGradient>
  <linearGradient id="linearGradient2151" x1="22.49" x2="35.719" y1="265.25" y2="257.313" gradientTransform="matrix(2.8030833,0,0,2.8030833,-47.025186,-468.27486)" gradientUnits="userSpaceOnUse">
   <stop style="stop-color:#6bcfff" id="stop20" offset="0"/>
   <stop style="stop-color:#4aa5d2" id="stop22" offset="1"/>
  </linearGradient>
  <linearGradient id="linearGradient6455">
   <stop id="stop6457" offset="0" style="stop-color:#fdb245"/>
   <stop id="stop6459" offset="1" style="stop-color:#f57900"/>
  </linearGradient>
  <linearGradient id="linearGradient6501-7" x1="314.031" x2="311.126" y1="192.257" y2="669.858" gradientTransform="matrix(0.45082366,0,0,0.45083756,-2.4405351,-3.7252838)" gradientUnits="userSpaceOnUse" xlink:href="#linearGradient8955-2"/>
  <linearGradient id="linearGradient8955-2">
   <stop id="stop8957-9" offset="0" style="stop-color:#729fcf"/>
   <stop id="stop8959-9" offset="1" style="stop-color:#3465a4"/>
  </linearGradient>
  <linearGradient id="linearGradient1690" x1="133.816" x2="129.989" y1="234.389" y2="19.576" gradientUnits="userSpaceOnUse" xlink:href="#linearGradient1688"/>
 </defs>
 <path style="opacity:0.1;filter:url(#filter4346)" d="M 141.84323,74 C 71.24979,74 63.65402,81.250835 64,151.98706 V 298 444.01294 C 63.65402,514.74917 71.24979,522 141.84323,522 H 434.15677 C 504.75021,522 513.9371,514.72348 512,444.01294 V 298 151.98706 C 512,81.249993 504.75021,74 434.15677,74 Z" transform="matrix(0.5,0,0,0.5,-16.116488,-20.825537)"/>
 <path d="M 141.84323,74 C 71.24979,74 63.65402,81.250835 64,151.98706 V 298 444.01294 C 63.65402,514.74917 71.24979,522 141.84323,522 H 434.15677 C 504.75021,522 513.9371,514.72348 512,444.01294 V 298 151.98706 C 512,81.249993 504.75021,74 434.15677,74 Z" transform="matrix(0.5,0,0,0.5,-16.116488,-20.825235)" style="opacity:0.3;fill:url(#linearGradient4358);filter:url(#filter4380)"/>
 <path style="opacity:0.2" d="m 53.695112,13.174464 c -36.098811,0 -39.983002,3.690159 -39.80608,39.689839 v 74.310167 74.31016 c -0.176922,35.99969 3.707269,39.68984 39.80608,39.68984 H 202.08243 c 36.09881,0 40.77464,-3.70276 39.80608,-39.68984 V 127.17447 52.864303 c 0,-36.00011 -3.70727,-39.689839 -39.80608,-39.689839 z"/>
 <path style="fill:url(#linearGradient1690);fill-rule:evenodd" d="M 54.798828 15.173828 C 50.386739 15.173828 46.471265 15.230237 42.994141 15.398438 C 39.517016 15.566638 36.479843 15.84673 33.828125 16.292969 C 31.176407 16.739207 28.908525 17.353385 26.972656 18.1875 C 26.004722 18.604557 25.120061 19.076707 24.310547 19.611328 C 23.501032 20.145949 22.768305 20.742289 22.103516 21.408203 C 21.438726 22.074118 20.842353 22.808203 20.308594 23.619141 C 19.774835 24.430078 19.303142 25.317419 18.886719 26.287109 C 18.053872 28.226491 17.441767 30.497525 16.996094 33.154297 C 16.550421 35.811068 16.271573 38.853891 16.103516 42.337891 C 15.935458 45.821891 15.878906 49.746902 15.878906 54.167969 L 15.878906 127.17383 L 15.878906 200.18164 C 15.878906 204.60271 15.935458 208.52772 16.103516 212.01172 C 16.271573 215.49572 16.550421 218.53854 16.996094 221.19531 C 17.441767 223.85208 18.053872 226.12312 18.886719 228.0625 C 19.303142 229.03219 19.774835 229.91758 20.308594 230.72852 C 20.842353 231.53945 21.438726 232.27549 22.103516 232.94141 C 22.768305 233.60732 23.501032 234.20366 24.310547 234.73828 C 25.120061 235.2729 26.004722 235.74505 26.972656 236.16211 C 28.908525 236.99622 31.176407 237.60845 33.828125 238.05469 C 36.479843 238.50093 39.517016 238.78102 42.994141 238.94922 C 46.471265 239.11742 50.386739 239.17383 54.798828 239.17383 L 200.95703 239.17383 C 205.36912 239.17383 209.28801 239.11743 212.76953 238.94922 C 216.25105 238.78101 219.29465 238.50094 221.95312 238.05469 C 224.6116 237.60843 226.88516 236.99624 228.82812 236.16211 C 229.79961 235.74504 230.68919 235.27291 231.50195 234.73828 C 232.31472 234.20365 233.05126 233.60733 233.71875 232.94141 C 234.38624 232.27549 234.98387 231.53946 235.51953 230.72852 C 236.05519 229.91757 236.52804 229.03024 236.94531 228.06055 C 237.77985 226.12116 238.39237 223.85207 238.83398 221.19531 C 239.2756 218.53855 239.54689 215.49569 239.70312 212.01172 C 239.85936 208.52775 239.90053 204.60266 239.87891 200.18164 L 239.87891 127.17383 L 239.87891 54.167969 C 239.90053 49.746955 239.85936 45.821862 239.70312 42.337891 C 239.54689 38.853919 239.2756 35.811059 238.83398 33.154297 C 238.39237 30.497535 237.77985 28.226495 236.94531 26.287109 C 236.52804 25.317417 236.05519 24.430083 235.51953 23.619141 C 234.98387 22.808198 234.38624 22.074124 233.71875 21.408203 C 233.05126 20.742282 232.31472 20.145957 231.50195 19.611328 C 230.68919 19.076699 229.79961 18.604566 228.82812 18.1875 C 226.88516 17.353368 224.6116 16.739224 221.95312 16.292969 C 219.29465 15.846714 216.25105 15.566648 212.76953 15.398438 C 209.28801 15.230227 205.36912 15.173828 200.95703 15.173828 L 54.798828 15.173828 z"/>
 <path style="opacity:0.3;fill:#ffffff" d="m 54.798828,15.173828 c -35.296727,0 -39.094869,3.626029 -38.921879,38.994139 v 2 c -0.17299,-35.36811 3.625152,-38.99414 38.921879,-38.99414 H 200.95506 c 35.29673,0 38.92188,3.62561 38.92188,38.99414 v -2 c 0,-35.36853 -3.62515,-38.994139 -38.92188,-38.994139 z"/>
 <path style="opacity:0.2" d="m 54.810792,239.17447 c -35.296731,0 -39.094875,-3.62603 -38.921885,-38.99414 v -2 c -0.17299,35.36811 3.625154,38.99414 38.921885,38.99414 H 200.96703 c 35.29673,0 38.92188,-3.62561 38.92188,-38.99414 v 2 c 0,35.36853 -3.62515,38.99414 -38.92188,38.99414 z"/>
 <path style="fill:#f1f1f1" d="m 66.420926,73.729383 a 13.362417,13.362417 0 1 0 0,26.722487 h 8.016648 c 3.340272,0 4.507932,0.65545 6.927477,2.83304 2.41954,2.17759 5.336929,6.24832 8.677201,11.25873 2.590829,3.88624 5.441319,8.33695 9.355369,12.62975 -3.91405,4.29278 -6.76454,8.74448 -9.355369,12.63072 -3.340272,5.0104 -6.257646,9.08113 -8.677201,11.25873 -2.419555,2.1776 -3.58718,2.83303 -6.927477,2.83303 h -8.016648 a 13.362334,13.362334 0 1 0 0,26.72249 h 8.016648 c 10.020791,0 18.873317,-4.35497 24.804447,-9.69298 5.931119,-5.338 9.694609,-11.28809 13.034879,-16.29849 3.34027,-5.01041 6.25667,-9.08113 8.67623,-11.25874 2.41954,-2.17759 3.58815,-2.83303 6.92845,-2.83303 3.34029,0 4.5089,0.65544 6.92844,2.83303 2.41956,2.17761 5.33596,6.24833 8.67623,11.25874 3.34027,5.0104 7.10376,10.96049 13.03488,16.29849 5.93113,5.33801 14.78366,9.69298 24.80445,9.69298 h 8.01665 a 13.362334,13.362334 0 1 0 0,-26.72249 h -8.01665 c -3.3403,0 -4.50792,-0.65543 -6.92748,-2.83303 -2.41955,-2.1776 -5.33693,-6.24833 -8.6772,-11.25873 -2.6049,-3.90736 -5.47294,-8.38585 -9.41995,-12.7002 1.4349,-1.52614 2.72676,-3.07283 3.86251,-4.57689 6.29647,-8.33834 10.6233,-15.99956 14.25128,-19.25679 2.41088,-2.16444 3.57849,-2.81836 6.91084,-2.81836 h 8.01665 a 13.362417,13.362417 0 1 0 0,-26.722487 h -8.01665 c -9.99797,0 -18.83543,4.33466 -24.76335,9.65678 -8.91901,8.00757 -13.36744,17.268657 -17.72333,23.037097 -4.35588,5.76844 -5.94311,7.38937 -10.95732,7.38937 -3.34028,0 -4.50891,-0.65545 -6.92845,-2.83303 -2.41955,-2.1776 -5.33596,-6.24833 -8.67623,-11.258737 -3.34027,-5.01041 -7.10375,-10.96048 -13.034879,-16.29849 -5.93114,-5.33802 -14.783631,-9.69299 -24.804447,-9.69299 z"/>
 <path style="opacity:0.3;fill:#ffffff" d="M 66.421875 73.728516 A 13.362417 13.362417 0 0 0 52.927734 87.980469 A 13.362417 13.362417 0 0 1 66.421875 75.728516 L 74.4375 75.728516 C 84.458316 75.728516 93.311048 80.083855 99.242188 85.421875 C 105.17332 90.759885 108.93707 96.710296 112.27734 101.7207 C 115.61761 106.73111 118.53357 110.80287 120.95312 112.98047 C 123.37266 115.15805 124.54058 115.8125 127.88086 115.8125 C 132.89507 115.8125 134.48396 114.19227 138.83984 108.42383 C 143.19573 102.65539 147.64349 93.394289 156.5625 85.386719 C 162.49042 80.064599 171.3282 75.728516 181.32617 75.728516 L 189.3418 75.728516 A 13.362417 13.362417 0 0 1 202.83594 88.183594 A 13.362417 13.362417 0 0 0 189.3418 73.728516 L 181.32617 73.728516 C 171.3282 73.728516 162.49042 78.064599 156.5625 83.386719 C 147.64349 91.394289 143.19573 100.65539 138.83984 106.42383 C 134.48396 112.19227 132.89507 113.8125 127.88086 113.8125 C 124.54058 113.8125 123.37266 113.15805 120.95312 110.98047 C 118.53357 108.80287 115.61761 104.73111 112.27734 99.720703 C 108.93707 94.710293 105.17332 88.759885 99.242188 83.421875 C 93.311048 78.083855 84.458316 73.728516 74.4375 73.728516 L 66.421875 73.728516 z M 157.18555 128.10742 C 156.88816 128.43943 156.61173 128.77279 156.30078 129.10352 C 160.24779 133.41787 163.1158 137.89733 165.7207 141.80469 C 169.06097 146.81509 171.97889 150.8849 174.39844 153.0625 C 176.818 155.2401 177.98587 155.89648 181.32617 155.89648 L 189.3418 155.89648 A 13.362334 13.362334 0 0 1 202.82812 168.36133 A 13.362334 13.362334 0 0 0 189.3418 153.89648 L 181.32617 153.89648 C 177.98587 153.89648 176.818 153.2401 174.39844 151.0625 C 171.97889 148.8849 169.06097 144.81509 165.7207 139.80469 C 163.31699 136.19911 160.6784 132.1079 157.18555 128.10742 z M 98.519531 128.17383 C 95.055778 132.15312 92.433316 136.21917 90.042969 139.80469 C 86.702697 144.81509 83.784789 148.8849 81.365234 151.0625 C 78.945679 153.2401 77.777797 153.89648 74.4375 153.89648 L 66.421875 153.89648 A 13.362334 13.362334 0 0 0 52.935547 168.14258 A 13.362334 13.362334 0 0 1 66.421875 155.89648 L 74.4375 155.89648 C 77.777797 155.89648 78.945679 155.2401 81.365234 153.0625 C 83.784789 150.8849 86.702697 146.81509 90.042969 141.80469 C 92.633798 137.91845 95.484387 133.46661 99.398438 129.17383 C 99.095769 128.84187 98.809852 128.50734 98.519531 128.17383 z"/>
 <path style="opacity:0.2" d="M 52.927734 85.980469 A 13.362417 13.362417 0 0 0 66.421875 100.45117 L 74.4375 100.45117 C 77.777772 100.45117 78.945689 101.10757 81.365234 103.28516 C 83.784774 105.46275 86.702697 109.53256 90.042969 114.54297 C 92.433452 118.12869 95.055482 122.19444 98.519531 126.17383 C 98.810042 125.84008 99.095563 125.50601 99.398438 125.17383 C 95.484388 120.88103 92.633798 116.42921 90.042969 112.54297 C 86.702697 107.53256 83.784774 103.46275 81.365234 101.28516 C 78.945689 99.107566 77.777772 98.451172 74.4375 98.451172 L 66.421875 98.451172 A 13.362417 13.362417 0 0 1 52.927734 85.980469 z M 202.83594 86.183594 A 13.362417 13.362417 0 0 1 189.3418 98.451172 L 181.32617 98.451172 C 177.99382 98.451172 176.82494 99.105091 174.41406 101.26953 C 170.78608 104.52676 166.46053 112.189 160.16406 120.52734 C 159.02831 122.0314 157.73568 123.57738 156.30078 125.10352 C 156.60563 125.43674 156.89319 125.77258 157.18555 126.10742 C 158.26046 124.90735 159.27444 123.70547 160.16406 122.52734 C 166.46053 114.189 170.78608 106.52676 174.41406 103.26953 C 176.82494 101.10509 177.99382 100.45117 181.32617 100.45117 L 189.3418 100.45117 A 13.362417 13.362417 0 0 0 202.83594 86.183594 z M 127.88086 138.53516 C 124.54056 138.53516 123.37266 139.1896 120.95312 141.36719 C 118.53356 143.5448 115.61761 147.61654 112.27734 152.62695 C 108.93707 157.63735 105.17331 163.58778 99.242188 168.92578 C 93.311058 174.26379 84.458291 178.61914 74.4375 178.61914 L 66.421875 178.61914 A 13.362334 13.362334 0 0 1 52.935547 166.15234 A 13.362334 13.362334 0 0 0 66.421875 180.61914 L 74.4375 180.61914 C 84.458291 180.61914 93.311058 176.26379 99.242188 170.92578 C 105.17331 165.58778 108.93707 159.63735 112.27734 154.62695 C 115.61761 149.61654 118.53356 145.5448 120.95312 143.36719 C 123.37266 141.1896 124.54056 140.53516 127.88086 140.53516 C 131.22115 140.53516 132.39101 141.1896 134.81055 143.36719 C 137.23011 145.5448 140.14606 149.61654 143.48633 154.62695 C 146.8266 159.63735 150.59036 165.58778 156.52148 170.92578 C 162.45261 176.26379 171.30538 180.61914 181.32617 180.61914 L 189.3418 180.61914 A 13.362334 13.362334 0 0 0 202.82812 166.36133 A 13.362334 13.362334 0 0 1 189.3418 178.61914 L 181.32617 178.61914 C 171.30538 178.61914 162.45261 174.26379 156.52148 168.92578 C 150.59036 163.58778 146.8266 157.63735 143.48633 152.62695 C 140.14606 147.61654 137.23011 143.5448 134.81055 141.36719 C 132.39101 139.1896 131.22115 138.53516 127.88086 138.53516 z"/>
</svg>
